X:1
T:Lift Up Your Voices
T:Lift Up Your Voices
T:Joseph Lincoln Hall
T:Minnie A. Greiner-Edington, 1900
T:Public Domain Courtesy of the Cyber Hymnal™
T:Public Domain Courtesy of the Cyber Hymnal™
C:Joseph Lincoln Hall
Z:Public Domain
Z:Courtesy of the Cyber Hymnal™
%%score ( 1 2 ) ( 3 4 )
L:1/8
Q:1/4=95
M:6/8
K:Eb
V:1 treble 
V:2 treble 
V:3 bass 
V:4 bass 
V:1
 [EG][EG][EG] [DF][DG][DF] | [DF]3 [B,E]3 | [EB][EB][EB] [DA][DB][FA] | [EG]6 | %4
w: 1.~Lift up your ju- bi- lant|voic- es,|All ye glad na- tions and|sing;|
w: 2.~Lift up your ju- bi- lant|voic- es,|Greet Him with prais- es of|joy;|
w: 3.~Lift up your ju- bi- lant|voic- es,|Break forth with sweet- est of|songs;|
 [Ec][Ec][Ec] [Ec][Ed][Ee] | [Ee]3 [EB]3 | [E=A][EA][EA] [Ec][Fd][Ec] | B6 || %8
w: Je- sus the Sav- ior is|ris- en,|Je- sus your Sav- ior and|king.|
w: Give to Him glo- ry and|hon- or,|Grand- est of an- thems em-|ploy.|
w: Je- sus the Sav- ior is|ris- en,|Glo- ry to Him now be-|longs.|
"^Refrain" G3 c3 ([=D=F][DF]) | c3 ([DF][DF]) B3 ([EG][EG]) | E3 A3 ([CF][CF]) | G3 F3 | %12
w: ||||
w: ||||
w: ||||
 E3 F2 [CG] | B3 ([CF][CF]) A3 ([CF][CF]) | G3 ([_A,CE][A,CE]) F2 ([A,CE][A,C]) | %15
w: |||
w: |||
w: |||
 G3 ([B,D][B,D]) F3 ([B,D][B,D]) | G3 G3 | c3 G3 | =A3 ([EF][EF]) A3 ([EF][EF]) | %19
w: ||||
w: ||||
w: ||||
 d3 ([DAB][DAB]) B3 ([DA][DA]) |!ff! B3!<(! ([EG][EG]) c2!<)! ([EG][EGd]) | %21
w: ||
w: ||
w: ||
 [E_G_ce]3- !fermata![EGce]2 e | B3 ([EG][EG]) D3 | E3- [B,E]3 |] %24
w: |||
w: |||
w: |||
V:2
 x6 | x6 | x6 | x6 | x6 | x6 | x6 | (D2 E F3) || (EEE) [^D^F] x4 | [DF] [EG] x8 | (CCC) [CF] x4 | %11
 (DDD) (DDD) | (CCC) C C x | [CF] [CF] x8 | [=A,CE] [A,CE] x7 | [B,D] [B,D] x8 | (EEE) (EEE) | %17
 (=EEE) (EEE) | [EF] [EF] x8 | [DAB] [DA] x8 | [EG] [EG] x7 | x6 | ([EG]B,B, B,) x4 | B,B,_C x3 |] %24
V:3
 [E,B,][E,B,][E,B,] [B,,A,][B,,B,][B,,A,] | A,3 [E,G,]3 | [G,B,][G,B,][G,B,] [F,B,][F,B,][D,B,] | %3
w: ~ ~ ~ ~ ~ ~|~ ~|~ ~ ~ ~ ~ ~|
 (B,DC B,3) | A,A,A, A,[A,B,][A,C] | [G,B,]3 [G,B,]3 | [F,C][F,C][F,C] [F,=A,][F,A,][F,A,] | %7
w: ~ * * *|~ ~ ~ ~ ~ ~|~ ~|~ ~ ~ ~ ~ ~|
 (B,F,G, A,3) || ([E,B,][E,B,][E,B,]) ([E,A,][E,A,][E,A,]) x2 | %9
w: ~ * * *|Je- * * sus * *|
 ([E,A,][E,A,][E,A,]) ([E,B,][E,B,][E,B,]) x4 | ([C,G,][C,G,][C,G,]) ([F,,F,][F,,F,][F,,F,]) x2 | %11
w: liv- * * eth! * *|He * * hath * *|
 ([B,,B,][B,,B,][B,,B,]) ([=B,,A,][B,,A,][B,,A,]) | ([C,G,][C,G,][C,G,]) ([C,G,][C,G,][C,G,]) | %13
w: ris- * * en, * *|Sun- * * dered * *|
 ([F,,F,][F,,F,][F,,F,]) ([F,,F,][F,,F,][F,,F,]) x4 | %14
w: the * * tomb * *|
 ([F,,F,][F,,F,][F,,F,]) ([F,,F,][F,,F,][F,,F,]) x3 | %15
w: And * * con- * *|
 ([B,,F,A,][B,,F,A,][B,,F,A,]) ([B,,F,A,][B,,F,A,][B,,F,A,]) x4 | %16
w: quered * * the * *|
 ([E,B,][E,B,][E,B,]) ([_D,B,][D,B,][D,B,]) | %17
w: grave; * * Might- * *|
 ([C,G,B,][C,G,B,][C,G,B,]) ([C,G,B,][C,G,B,][C,G,B,]) | ([F,C][F,C][F,C]) ([F,C][F,C][F,C]) x4 | %19
w: y * * Sav- * *|ior, * * live * *|
 ([B,,F,B,][B,,F,B,][B,,F,B,]) ([B,,F,B,][B,,F,B,])[B,,F,B,] x4 | %20
w: for- * * ev- * er,|
 ([E,B,][E,B,][E,B,]) ([E,B,][E,B,])[E,B,] x3 | ([_C,_G,_C]3- [C,G,C]2) z | %22
w: Je- * * sus * is|king doth|
 ([B,,B,][B,,B,][B,,B,]) ([B,,F,A,][B,,F,A,][B,,F,A,]) x2 | [E,G,][E,G,][E,A,] [E,G,]3 |] %24
w: save. * * * * *||
V:4
 x6 | (B,,C,D,) x3 | x6 | E,6 | A,A,A, A, x2 | x6 | x6 | B,,6 || x8 | x10 | x8 | x6 | x6 | x10 | %14
 x9 | x10 | x6 | x6 | x10 | x10 | x9 | x6 | x8 | x6 |] %24

